; generated by PrusaSlicer 2.7.2+win64 on 2024-03-05 at 19:08:25 UTC

; 

; external perimeters extrusion width = 0.42mm
; perimeters extrusion width = 0.44mm
; infill extrusion width = 0.44mm
; solid infill extrusion width = 0.44mm
; top infill extrusion width = 0.40mm
; first layer extrusion width = 0.42mm

M201 X500 Y500 Z100 E1000 ; sets maximum accelerations, mm/sec^2
M203 X500 Y500 Z5 E60 ; sets maximum feedrates, mm / sec
M204 S500 T1000 ; sets acceleration (S) and retract acceleration (R), mm/sec^2
M205 X8.00 Y8.00 Z0.40 E5.00 ; sets the jerk limits, mm/sec
M205 S0 T0 ; sets the minimum extruding and travel feed rate, mm/sec

; printing object Printing object-V01 v1 id:0 copy 0
; stop printing object Printing object-V01 v1 id:0 copy 0

;TYPE:Custom
G90 ; use absolute coordinates
M83 ; extruder relative mode
M104 S150 ; set temporary nozzle temp to prevent oozing during homing
M140 S50 ; set final bed temp
G4 S30 ; allow partial nozzle warmup
G28 ; home all axis
G1 Z50 F240
G1 X2.0 Y10 F3000
M104 S228 ; set final nozzle temp
M190 S50 ; wait for bed temp to stabilize
M109 S228 ; wait for nozzle temp to stabilize
G1 Z0.28 F240
G92 E0
G1 X2.0 Y140 E10 F1500 ; prime the nozzle
G1 X2.3 Y140 F5000
G92 E0
G1 X2.3 Y10 E10 F1200 ; prime the nozzle
G92 E0
G21 ; set units to millimeters
G90 ; use absolute coordinates
M83 ; use relative distances for extrusion
; Filament gcode
M107
;LAYER_CHANGE
;Z:0.2
;HEIGHT:0.2
G1 E-6 F3600
G1 Z.2 F9000
G1 X63.107 Y84.703
G1 Z.2
G1 E6 F2400
M204 S500
;TYPE:Skirt/Brim
;WIDTH:0.42
G1 F1500
G1 X65 Y84.123 E.06953
G1 X165 Y84.123 E3.51168
G1 X166.583 Y84.517 E.05729
G1 X167.797 Y85.607 E.05729
G1 X168.377 Y87.5 E.06953
G1 X168.377 Y137.5 E1.75584
G1 X167.983 Y139.083 E.05729
G1 X166.893 Y140.297 E.05729
G1 X165 Y140.877 E.06953
G1 X65 Y140.877 E3.51168
G1 X63.417 Y140.483 E.05729
G1 X62.203 Y139.393 E.05729
G1 X61.623 Y137.5 E.06953
G1 X61.623 Y87.5 E1.75584
G1 X62.017 Y85.917 E.05729
G1 X63.067 Y84.748 E.05518
; printing object Printing object-V01 v1 id:0 copy 0
G1 E-4.2 F3600
;WIPE_START
G1 F7200
G1 X63.107 Y84.703 E-.0286
G1 X65 Y84.123 E-.94043
G1 X66.749 Y84.123 E-.83097
;WIPE_END
G1 X66.064 Y88.564 F9000
G1 E6 F2400
;TYPE:Perimeter
;WIDTH:0.419999
G1 F1500
G1 X163.936 Y88.564 E3.43695
G1 X163.936 Y112.5 E.84055
G1 X163.936 Y136.436 E.84055
G1 X66.064 Y136.436 E3.43695
G1 X66.064 Y88.624 E1.679
G1 X66.064 Y88.624 F9000
G1 X65.687 Y88.187
G1 F1500
G1 X164.313 Y88.187 E3.46343
G1 X164.313 Y112.5 E.85379
G1 X164.313 Y136.813 E.85379
G1 X65.687 Y136.813 E3.46343
G1 X65.687 Y88.247 E1.70548
G1 X65.31 Y87.81 F9000
;TYPE:External perimeter
G1 F1500
G1 X164.69 Y87.81 E3.4899
G1 X164.69 Y112.5 E.86703
G1 X164.69 Y137.19 E.86703
G1 X65.31 Y137.19 E3.4899
G1 X65.31 Y87.87 E1.73196
G1 E-4.2 F3600
;WIPE_START
G1 F7200
G1 X65.31 Y87.81 E-.0285
G1 X69.039 Y87.81 E-1.7715
;WIPE_END
G1 X163.815 Y89.449 F9000
G1 E6 F2400
;TYPE:Solid infill
;WIDTH:0.420744
G1 F1500
G1 X163.221 Y88.855 E.02956
G1 X162.687 Y88.855 E.01879
G1 X163.645 Y89.813 E.04767
G1 X163.645 Y90.348 E.01882
G1 X162.152 Y88.855 E.07429
G1 X161.618 Y88.855 E.01879
G1 X163.645 Y90.882 E.10086
G1 X163.645 Y91.416 E.01879
G1 X161.084 Y88.855 E.12744
G1 X160.549 Y88.855 E.01882
G1 X163.645 Y91.951 E.15406
G1 X163.645 Y92.485 E.01879
G1 X160.015 Y88.855 E.18063
G1 X159.481 Y88.855 E.01879
G1 X163.645 Y93.019 E.2072
G1 X163.645 Y93.554 E.01882
G1 X158.946 Y88.855 E.23383
G1 X158.412 Y88.855 E.01879
G1 X163.645 Y94.088 E.2604
G1 X163.645 Y94.622 E.01879
G1 X157.878 Y88.855 E.28697
G1 X157.343 Y88.855 E.01882
G1 X163.645 Y95.157 E.31359
G1 X163.645 Y95.691 E.01879
G1 X156.809 Y88.855 E.34016
G1 X156.275 Y88.855 E.01879
G1 X163.645 Y96.225 E.36674
G1 X163.645 Y96.76 E.01882
G1 X155.74 Y88.855 E.39336
G1 X155.206 Y88.855 E.01879
G1 X163.645 Y97.294 E.41993
G1 X163.645 Y97.828 E.01879
G1 X154.672 Y88.855 E.4465
G1 X154.138 Y88.855 E.01879
G1 X163.645 Y98.362 E.47308
G1 X163.645 Y98.897 E.01882
G1 X153.603 Y88.855 E.4997
G1 X153.069 Y88.855 E.01879
G1 X163.645 Y99.431 E.52627
G1 X163.645 Y99.965 E.01879
G1 X152.535 Y88.855 E.55284
G1 X152 Y88.855 E.01882
G1 X163.645 Y100.5 E.57946
G1 X163.645 Y101.034 E.01879
G1 X151.466 Y88.855 E.60604
G1 X150.932 Y88.855 E.01879
G1 X163.645 Y101.568 E.63261
G1 X163.645 Y102.103 E.01882
G1 X150.397 Y88.855 E.65923
G1 X149.863 Y88.855 E.01879
G1 X163.645 Y102.637 E.6858
G1 X163.645 Y103.171 E.01879
G1 X149.329 Y88.855 E.71237
G1 X148.794 Y88.855 E.01882
G1 X163.645 Y103.706 E.739
G1 X163.645 Y104.24 E.01879
G1 X148.26 Y88.855 E.76557
G1 X147.726 Y88.855 E.01879
G1 X163.645 Y104.774 E.79214
G1 X163.645 Y105.309 E.01882
G1 X147.191 Y88.855 E.81876
G1 X146.657 Y88.855 E.01879
G1 X163.645 Y105.843 E.84533
G1 X163.645 Y106.377 E.01879
G1 X146.123 Y88.855 E.87191
G1 X145.588 Y88.855 E.01882
G1 X163.645 Y106.912 E.89853
G1 X163.645 Y107.446 E.01879
G1 X145.054 Y88.855 E.9251
G1 X144.52 Y88.855 E.01879
G1 X163.645 Y107.98 E.95167
G1 X163.645 Y108.515 E.01882
G1 X143.985 Y88.855 E.9783
G1 X143.451 Y88.855 E.01879
G1 X163.645 Y109.049 E1.00487
G1 X163.645 Y109.583 E.01879
G1 X142.917 Y88.855 E1.03144
G1 X142.382 Y88.855 E.01882
G1 X163.645 Y110.118 E1.05806
G1 X163.645 Y110.652 E.01879
G1 X141.848 Y88.855 E1.08463
G1 X141.314 Y88.855 E.01879
G1 X163.645 Y111.186 E1.11121
G1 X163.645 Y111.721 E.01882
G1 X140.779 Y88.855 E1.13783
G1 X140.245 Y88.855 E.01879
G1 X163.645 Y112.255 E1.1644
G1 X163.645 Y112.789 E.01879
G1 X139.711 Y88.855 E1.19097
G1 X139.176 Y88.855 E.01882
G1 X163.645 Y113.324 E1.21759
G1 X163.645 Y113.858 E.01879
G1 X138.642 Y88.855 E1.24417
G1 X138.108 Y88.855 E.01879
G1 X163.645 Y114.392 E1.27074
G1 X163.645 Y114.927 E.01882
G1 X137.573 Y88.855 E1.29736
G1 X137.039 Y88.855 E.01879
G1 X163.645 Y115.461 E1.32393
G1 X163.645 Y115.995 E.01879
G1 X136.505 Y88.855 E1.35051
G1 X135.971 Y88.855 E.01879
G1 X163.645 Y116.53 E1.3771
G1 X163.645 Y117.064 E.01879
G1 X135.436 Y88.855 E1.4037
G1 X134.902 Y88.855 E.01879
G1 X163.645 Y117.598 E1.43027
G1 X163.645 Y118.132 E.01879
G1 X134.368 Y88.855 E1.45684
G1 X133.833 Y88.855 E.01882
G1 X163.645 Y118.667 E1.48347
G1 X163.645 Y119.201 E.01879
G1 X133.299 Y88.855 E1.51004
G1 X132.765 Y88.855 E.01879
G1 X163.645 Y119.735 E1.53661
G1 X163.645 Y120.27 E.01882
G1 X132.23 Y88.855 E1.56323
G1 X131.696 Y88.855 E.01879
G1 X163.645 Y120.804 E1.5898
G1 X163.645 Y121.338 E.01879
G1 X131.162 Y88.855 E1.61638
G1 X130.627 Y88.855 E.01882
G1 X163.645 Y121.873 E1.643
G1 X163.645 Y122.407 E.01879
G1 X130.093 Y88.855 E1.66957
G1 X129.559 Y88.855 E.01879
G1 X163.645 Y122.941 E1.69614
G1 X163.645 Y123.476 E.01882
G1 X129.024 Y88.855 E1.72277
G1 X128.49 Y88.855 E.01879
G1 X163.645 Y124.01 E1.74934
G1 X163.645 Y124.544 E.01879
G1 X127.956 Y88.855 E1.77591
G1 X127.421 Y88.855 E.01882
G1 X163.645 Y125.079 E1.80253
G1 X163.645 Y125.613 E.01879
G1 X126.887 Y88.855 E1.8291
G1 X126.353 Y88.855 E.01879
G1 X163.645 Y126.147 E1.85568
G1 X163.645 Y126.682 E.01882
G1 X125.818 Y88.855 E1.8823
G1 X125.284 Y88.855 E.01879
G1 X163.645 Y127.216 E1.90887
G1 X163.645 Y127.75 E.01879
G1 X124.75 Y88.855 E1.93544
G1 X124.215 Y88.855 E.01882
G1 X163.645 Y128.285 E1.96206
G1 X163.645 Y128.819 E.01879
G1 X123.681 Y88.855 E1.98864
G1 X123.147 Y88.855 E.01879
G1 X163.645 Y129.353 E2.01521
G1 X163.645 Y129.888 E.01882
G1 X122.612 Y88.855 E2.04183
G1 X122.078 Y88.855 E.01879
G1 X163.645 Y130.422 E2.0684
G1 X163.645 Y130.956 E.01879
G1 X121.544 Y88.855 E2.09498
G1 X121.009 Y88.855 E.01882
G1 X163.645 Y131.491 E2.1216
G1 X163.645 Y132.025 E.01879
G1 X120.475 Y88.855 E2.14817
G1 X119.941 Y88.855 E.01879
G1 X163.645 Y132.559 E2.17474
G1 X163.645 Y133.094 E.01882
G1 X119.406 Y88.855 E2.20136
G1 X118.872 Y88.855 E.01879
G1 X163.645 Y133.628 E2.22794
G1 X163.645 Y134.162 E.01879
G1 X118.338 Y88.855 E2.25451
G1 X117.803 Y88.855 E.01882
G1 X163.645 Y134.697 E2.28113
G1 X163.645 Y135.231 E.01879
G1 X117.269 Y88.855 E2.3077
G1 X116.735 Y88.855 E.01879
G1 X163.645 Y135.765 E2.33428
G1 X163.645 Y136.145 E.01337
G1 X163.492 Y136.145 E.00538
G1 X116.201 Y88.855 E2.35321
G1 X115.666 Y88.855 E.01882
G1 X162.957 Y136.145 E2.35321
G1 X162.423 Y136.145 E.01879
G1 X115.132 Y88.855 E2.35321
G1 X114.598 Y88.855 E.01879
G1 X161.889 Y136.145 E2.35321
G1 X161.354 Y136.145 E.01882
G1 X114.063 Y88.855 E2.35321
G1 X113.529 Y88.855 E.01879
G1 X160.82 Y136.145 E2.35321
G1 X160.286 Y136.145 E.01879
G1 X112.995 Y88.855 E2.35321
G1 X112.46 Y88.855 E.01882
G1 X159.751 Y136.145 E2.35321
G1 X159.217 Y136.145 E.01879
G1 X111.926 Y88.855 E2.35321
G1 X111.392 Y88.855 E.01879
G1 X158.683 Y136.145 E2.35321
G1 X158.148 Y136.145 E.01882
G1 X110.857 Y88.855 E2.35321
G1 X110.323 Y88.855 E.01879
G1 X157.614 Y136.145 E2.35321
G1 X157.08 Y136.145 E.01879
G1 X109.789 Y88.855 E2.35321
G1 X109.254 Y88.855 E.01882
G1 X156.545 Y136.145 E2.35321
G1 X156.011 Y136.145 E.01879
G1 X108.72 Y88.855 E2.35321
G1 X108.186 Y88.855 E.01879
G1 X155.477 Y136.145 E2.35321
G1 X154.942 Y136.145 E.01882
G1 X107.651 Y88.855 E2.35321
G1 X107.117 Y88.855 E.01879
G1 X154.408 Y136.145 E2.35321
G1 X153.874 Y136.145 E.01879
G1 X106.583 Y88.855 E2.35321
G1 X106.048 Y88.855 E.01882
G1 X153.339 Y136.145 E2.35321
G1 X152.805 Y136.145 E.01879
G1 X105.514 Y88.855 E2.35321
G1 X104.98 Y88.855 E.01879
G1 X152.271 Y136.145 E2.35321
G1 X151.736 Y136.145 E.01882
G1 X104.445 Y88.855 E2.35321
G1 X103.911 Y88.855 E.01879
G1 X151.202 Y136.145 E2.35321
G1 X150.668 Y136.145 E.01879
G1 X103.377 Y88.855 E2.35321
G1 X102.842 Y88.855 E.01882
G1 X150.133 Y136.145 E2.35321
G1 X149.599 Y136.145 E.01879
G1 X102.308 Y88.855 E2.35321
G1 X101.774 Y88.855 E.01879
G1 X149.065 Y136.145 E2.35321
G1 X148.53 Y136.145 E.01882
G1 X101.239 Y88.855 E2.35321
G1 X100.705 Y88.855 E.01879
G1 X147.996 Y136.145 E2.35321
G1 X147.462 Y136.145 E.01879
G1 X100.171 Y88.855 E2.35321
G1 X99.636 Y88.855 E.01882
G1 X146.927 Y136.145 E2.35321
G1 X146.393 Y136.145 E.01879
G1 X99.102 Y88.855 E2.35321
G1 X98.568 Y88.855 E.01879
G1 X145.859 Y136.145 E2.35321
G1 X145.324 Y136.145 E.01882
G1 X98.034 Y88.855 E2.35318
G1 X97.499 Y88.855 E.01882
G1 X144.79 Y136.145 E2.35321
G1 X144.256 Y136.145 E.01879
G1 X96.965 Y88.855 E2.35321
G1 X96.431 Y88.855 E.01879
G1 X143.722 Y136.145 E2.35321
G1 X143.187 Y136.145 E.01882
G1 X95.896 Y88.855 E2.35321
G1 X95.362 Y88.855 E.01879
G1 X142.653 Y136.145 E2.35321
G1 X142.119 Y136.145 E.01879
G1 X94.828 Y88.855 E2.35321
G1 X94.293 Y88.855 E.01882
G1 X141.584 Y136.145 E2.35321
G1 X141.05 Y136.145 E.01879
G1 X93.759 Y88.855 E2.35321
G1 X93.225 Y88.855 E.01879
G1 X140.516 Y136.145 E2.35321
G1 X139.981 Y136.145 E.01882
G1 X92.69 Y88.855 E2.35321
G1 X92.156 Y88.855 E.01879
G1 X139.447 Y136.145 E2.35321
G1 X138.913 Y136.145 E.01879
G1 X91.622 Y88.855 E2.35321
G1 X91.087 Y88.855 E.01882
G1 X138.378 Y136.145 E2.35321
G1 X137.844 Y136.145 E.01879
G1 X90.553 Y88.855 E2.35321
G1 X90.019 Y88.855 E.01879
G1 X137.31 Y136.145 E2.35321
G1 X136.775 Y136.145 E.01882
G1 X89.484 Y88.855 E2.35321
G1 X88.95 Y88.855 E.01879
G1 X136.241 Y136.145 E2.35321
G1 X135.707 Y136.145 E.01879
G1 X88.416 Y88.855 E2.35321
G1 X87.881 Y88.855 E.01882
G1 X135.172 Y136.145 E2.35321
G1 X134.638 Y136.145 E.01879
G1 X87.347 Y88.855 E2.35321
G1 X86.813 Y88.855 E.01879
G1 X134.104 Y136.145 E2.35321
G1 X133.569 Y136.145 E.01882
G1 X86.278 Y88.855 E2.35321
G1 X85.744 Y88.855 E.01879
G1 X133.035 Y136.145 E2.35321
G1 X132.501 Y136.145 E.01879
G1 X85.21 Y88.855 E2.35321
G1 X84.675 Y88.855 E.01882
G1 X131.966 Y136.145 E2.35321
G1 X131.432 Y136.145 E.01879
G1 X84.141 Y88.855 E2.35321
G1 X83.607 Y88.855 E.01879
G1 X130.898 Y136.145 E2.35321
G1 X130.363 Y136.145 E.01882
G1 X83.072 Y88.855 E2.35321
G1 X82.538 Y88.855 E.01879
G1 X129.829 Y136.145 E2.35321
G1 X129.295 Y136.145 E.01879
G1 X82.004 Y88.855 E2.35321
G1 X81.469 Y88.855 E.01882
G1 X128.76 Y136.145 E2.35321
G1 X128.226 Y136.145 E.01879
G1 X80.935 Y88.855 E2.35321
G1 X80.401 Y88.855 E.01879
G1 X127.692 Y136.145 E2.35321
G1 X127.157 Y136.145 E.01882
G1 X79.867 Y88.855 E2.35318
G1 X79.332 Y88.855 E.01882
G1 X126.623 Y136.145 E2.35321
G1 X126.089 Y136.145 E.01879
G1 X78.798 Y88.855 E2.35321
G1 X78.264 Y88.855 E.01879
G1 X125.555 Y136.145 E2.35321
G1 X125.02 Y136.145 E.01882
G1 X77.729 Y88.855 E2.35321
G1 X77.195 Y88.855 E.01879
G1 X124.486 Y136.145 E2.35321
G1 X123.952 Y136.145 E.01879
G1 X76.661 Y88.855 E2.35321
G1 X76.126 Y88.855 E.01882
G1 X123.417 Y136.145 E2.35321
G1 X122.883 Y136.145 E.01879
G1 X75.592 Y88.855 E2.35321
G1 X75.058 Y88.855 E.01879
G1 X122.349 Y136.145 E2.35321
G1 X121.814 Y136.145 E.01882
G1 X74.523 Y88.855 E2.35321
G1 X73.989 Y88.855 E.01879
G1 X121.28 Y136.145 E2.35321
G1 X120.746 Y136.145 E.01879
G1 X73.455 Y88.855 E2.35321
G1 X72.92 Y88.855 E.01882
G1 X120.211 Y136.145 E2.35321
G1 X119.677 Y136.145 E.01879
G1 X72.386 Y88.855 E2.35321
G1 X71.852 Y88.855 E.01879
G1 X119.143 Y136.145 E2.35321
G1 X118.608 Y136.145 E.01882
G1 X71.317 Y88.855 E2.35321
G1 X70.783 Y88.855 E.01879
G1 X118.074 Y136.145 E2.35321
G1 X117.54 Y136.145 E.01879
G1 X70.249 Y88.855 E2.35321
G1 X69.714 Y88.855 E.01882
G1 X117.005 Y136.145 E2.35321
G1 X116.471 Y136.145 E.01879
G1 X69.18 Y88.855 E2.35321
G1 X68.646 Y88.855 E.01879
G1 X115.937 Y136.145 E2.35321
G1 X115.402 Y136.145 E.01882
G1 X68.111 Y88.855 E2.35321
G1 X67.577 Y88.855 E.01879
G1 X114.868 Y136.145 E2.35321
G1 X114.334 Y136.145 E.01879
G1 X67.043 Y88.855 E2.35321
G1 X66.508 Y88.855 E.01882
G1 X113.799 Y136.145 E2.35321
G1 X113.265 Y136.145 E.01879
G1 X66.355 Y89.235 E2.33428
G1 X66.355 Y89.769 E.01879
G1 X112.731 Y136.145 E2.3077
G1 X112.196 Y136.145 E.01882
G1 X66.355 Y90.304 E2.28108
G1 X66.355 Y90.838 E.01879
G1 X111.662 Y136.145 E2.25451
G1 X111.128 Y136.145 E.01879
G1 X66.355 Y91.372 E2.22794
G1 X66.355 Y91.907 E.01882
G1 X110.593 Y136.145 E2.20131
G1 X110.059 Y136.145 E.01879
G1 X66.355 Y92.441 E2.17474
G1 X66.355 Y92.975 E.01879
G1 X109.525 Y136.145 E2.14817
G1 X108.99 Y136.145 E.01882
G1 X66.355 Y93.51 E2.12155
G1 X66.355 Y94.044 E.01879
G1 X108.456 Y136.145 E2.09498
G1 X107.922 Y136.145 E.01879
G1 X66.355 Y94.578 E2.0684
G1 X66.355 Y95.112 E.01879
G1 X107.388 Y136.145 E2.04183
G1 X106.853 Y136.145 E.01882
G1 X66.355 Y95.647 E2.01521
G1 X66.355 Y96.181 E.01879
G1 X106.319 Y136.145 E1.98864
G1 X105.785 Y136.145 E.01879
G1 X66.355 Y96.715 E1.96206
G1 X66.355 Y97.25 E.01882
G1 X105.25 Y136.145 E1.93544
G1 X104.716 Y136.145 E.01879
G1 X66.355 Y97.784 E1.90887
G1 X66.355 Y98.318 E.01879
G1 X104.182 Y136.145 E1.8823
G1 X103.647 Y136.145 E.01882
G1 X66.355 Y98.853 E1.85568
G1 X66.355 Y99.387 E.01879
G1 X103.113 Y136.145 E1.8291
G1 X102.579 Y136.145 E.01879
G1 X66.355 Y99.921 E1.80253
G1 X66.355 Y100.456 E.01882
G1 X102.044 Y136.145 E1.77591
G1 X101.51 Y136.145 E.01879
G1 X66.355 Y100.99 E1.74934
G1 X66.355 Y101.524 E.01879
G1 X100.976 Y136.145 E1.72277
G1 X100.441 Y136.145 E.01882
G1 X66.355 Y102.059 E1.69614
G1 X66.355 Y102.593 E.01879
G1 X99.907 Y136.145 E1.66957
G1 X99.373 Y136.145 E.01879
G1 X66.355 Y103.127 E1.643
G1 X66.355 Y103.662 E.01882
G1 X98.838 Y136.145 E1.61638
G1 X98.304 Y136.145 E.01879
G1 X66.355 Y104.196 E1.5898
G1 X66.355 Y104.73 E.01879
G1 X97.77 Y136.145 E1.56323
G1 X97.235 Y136.145 E.01882
G1 X66.355 Y105.265 E1.53661
G1 X66.355 Y105.799 E.01879
G1 X96.701 Y136.145 E1.51004
G1 X96.167 Y136.145 E.01879
G1 X66.355 Y106.333 E1.48347
G1 X66.355 Y106.868 E.01882
G1 X95.632 Y136.145 E1.45684
G1 X95.098 Y136.145 E.01879
G1 X66.355 Y107.402 E1.43027
G1 X66.355 Y107.936 E.01879
G1 X94.564 Y136.145 E1.4037
G1 X94.029 Y136.145 E.01882
G1 X66.355 Y108.471 E1.37708
G1 X66.355 Y109.005 E.01879
G1 X93.495 Y136.145 E1.35051
G1 X92.961 Y136.145 E.01879
G1 X66.355 Y109.539 E1.32393
G1 X66.355 Y110.074 E.01882
G1 X92.426 Y136.145 E1.29731
G1 X91.892 Y136.145 E.01879
G1 X66.355 Y110.608 E1.27074
G1 X66.355 Y111.142 E.01879
G1 X91.358 Y136.145 E1.24417
G1 X90.823 Y136.145 E.01882
G1 X66.355 Y111.677 E1.21755
G1 X66.355 Y112.211 E.01879
G1 X90.289 Y136.145 E1.19097
G1 X89.755 Y136.145 E.01879
G1 X66.355 Y112.745 E1.1644
G1 X66.355 Y113.28 E.01882
G1 X89.22 Y136.145 E1.13778
G1 X88.686 Y136.145 E.01879
G1 X66.355 Y113.814 E1.11121
