; generated by PrusaSlicer 2.7.2+win64 on 2024-03-06 at 18:01:04 UTC

; 

; external perimeters extrusion width = 0.42mm
; perimeters extrusion width = 0.44mm
; infill extrusion width = 0.44mm
; solid infill extrusion width = 0.44mm
; top infill extrusion width = 0.40mm
; first layer extrusion width = 0.42mm

M201 X500 Y500 Z100 E1000 ; sets maximum accelerations, mm/sec^2
M203 X500 Y500 Z5 E60 ; sets maximum feedrates, mm / sec
M204 S500 T1000 ; sets acceleration (S) and retract acceleration (R), mm/sec^2
M205 X8.00 Y8.00 Z0.40 E5.00 ; sets the jerk limits, mm/sec
M205 S0 T0 ; sets the minimum extruding and travel feed rate, mm/sec

; printing object Pyramid id:0 copy 0
; stop printing object Pyramid id:0 copy 0

;TYPE:Custom
G90 ; use absolute coordinates
M83 ; extruder relative mode
M104 S150 ; set temporary nozzle temp to prevent oozing during homing
M140 S50 ; set final bed temp
G4 S30 ; allow partial nozzle warmup
G28 ; home all axis
G1 Z50 F240
G1 X2.0 Y10 F3000
M104 S228 ; set final nozzle temp
M190 S50 ; wait for bed temp to stabilize
M109 S228 ; wait for nozzle temp to stabilize
G1 Z0.28 F240
G92 E0
G1 X2.0 Y140 E10 F1500 ; prime the nozzle
G1 X2.3 Y140 F5000
G92 E0
G1 X2.3 Y10 E10 F1200 ; prime the nozzle
G92 E0
G21 ; set units to millimeters
G90 ; use absolute coordinates
M83 ; use relative distances for extrusion
; Filament gcode
M107
;LAYER_CHANGE
;Z:0.2
;HEIGHT:0.2
G1 E-6 F3600
G1 Z.2 F9000
G1 X100.707 Y97.303
G1 Z.2
G1 E6 F2400
M204 S500
;TYPE:Skirt/Brim
;WIDTH:0.42
G1 F1500
G1 X102.6 Y96.723 E.06953
G1 X127.4 Y96.723 E.8709
G1 X128.983 Y97.117 E.05729
G1 X130.197 Y98.207 E.05729
G1 X130.777 Y100.1 E.06953
G1 X130.777 Y124.9 E.8709
G1 X130.383 Y126.483 E.05729
G1 X129.293 Y127.697 E.05729
G1 X127.4 Y128.277 E.06953
G1 X102.6 Y128.277 E.8709
G1 X101.017 Y127.883 E.05729
G1 X99.803 Y126.793 E.05729
G1 X99.223 Y124.9 E.06953
G1 X99.223 Y100.1 E.8709
G1 X99.617 Y98.517 E.05729
G1 X100.667 Y97.348 E.05518
; printing object Pyramid id:0 copy 0
G1 E-4.2 F3600
;WIPE_START
G1 F7200
G1 X100.707 Y97.303 E-.0286
G1 X102.6 Y96.723 E-.94043
G1 X104.349 Y96.723 E-.83097
;WIPE_END
G1 X103.664 Y101.164 F9000
G1 E6 F2400
;TYPE:Perimeter
;WIDTH:0.419999
G1 F1500
G1 X126.336 Y101.164 E.79617
G1 X126.336 Y112.5 E.39808
G1 X126.336 Y123.836 E.39808
G1 X103.664 Y123.836 E.79617
G1 X103.664 Y101.224 E.79406
G1 X103.664 Y101.224 F9000
G1 X103.287 Y100.787
G1 F1500
G1 X126.713 Y100.787 E.82265
G1 X126.713 Y112.5 E.41132
G1 X126.713 Y124.213 E.41132
G1 X103.287 Y124.213 E.82265
G1 X103.287 Y100.847 E.82054
G1 X102.91 Y100.41 F9000
;TYPE:External perimeter
G1 F1500
G1 X127.09 Y100.41 E.84912
G1 X127.09 Y112.5 E.42456
G1 X127.09 Y124.59 E.42456
G1 X102.91 Y124.59 E.84912
G1 X102.91 Y100.47 E.84702
G1 E-4.2 F3600
;WIPE_START
G1 F7200
G1 X102.91 Y100.41 E-.0285
G1 X106.639 Y100.41 E-1.7715
;WIPE_END
G1 X126.215 Y102.05 F9000
G1 E6 F2400
;TYPE:Solid infill
;WIDTH:0.421189
G1 F1500
G1 X125.62 Y101.455 E.02964
G1 X125.085 Y101.455 E.01885
G1 X126.045 Y102.415 E.04783
G1 X126.045 Y102.95 E.01885
G1 X124.55 Y101.455 E.07448
G1 X124.015 Y101.455 E.01885
G1 X126.045 Y103.485 E.10113
G1 X126.045 Y104.02 E.01885
G1 X123.48 Y101.455 E.12779
G1 X122.945 Y101.455 E.01885
G1 X126.045 Y104.555 E.15444
G1 X126.045 Y105.09 E.01885
G1 X122.41 Y101.455 E.18109
G1 X121.875 Y101.455 E.01885
G1 X126.045 Y105.625 E.20775
G1 X126.045 Y106.16 E.01885
G1 X121.34 Y101.455 E.2344
G1 X120.805 Y101.455 E.01885
G1 X126.045 Y106.695 E.26105
G1 X126.045 Y107.229 E.01881
G1 X120.271 Y101.455 E.28766
G1 X119.736 Y101.455 E.01885
G1 X126.045 Y107.764 E.31431
G1 X126.045 Y108.299 E.01885
G1 X119.201 Y101.455 E.34096
G1 X118.666 Y101.455 E.01885
G1 X126.045 Y108.834 E.36762
G1 X126.045 Y109.369 E.01885
G1 X118.131 Y101.455 E.39427
G1 X117.596 Y101.455 E.01885
G1 X126.045 Y109.904 E.42092
G1 X126.045 Y110.439 E.01885
G1 X117.061 Y101.455 E.44758
G1 X116.526 Y101.455 E.01885
G1 X126.045 Y110.974 E.47423
G1 X126.045 Y111.509 E.01885
G1 X115.991 Y101.455 E.50088
G1 X115.456 Y101.455 E.01885
G1 X126.045 Y112.044 E.52754
G1 X126.045 Y112.579 E.01885
G1 X114.921 Y101.455 E.55419
G1 X114.386 Y101.455 E.01885
G1 X126.045 Y113.114 E.58084
G1 X126.045 Y113.649 E.01885
G1 X113.851 Y101.455 E.6075
G1 X113.316 Y101.455 E.01885
G1 X126.045 Y114.184 E.63415
G1 X126.045 Y114.719 E.01885
G1 X112.781 Y101.455 E.6608
G1 X112.246 Y101.455 E.01885
G1 X126.045 Y115.254 E.68746
G1 X126.045 Y115.789 E.01885
G1 X111.711 Y101.455 E.71411
G1 X111.176 Y101.455 E.01885
G1 X126.045 Y116.324 E.74076
G1 X126.045 Y116.859 E.01885
G1 X110.641 Y101.455 E.76742
G1 X110.106 Y101.455 E.01885
G1 X126.045 Y117.394 E.79407
G1 X126.045 Y117.929 E.01885
G1 X109.571 Y101.455 E.82072
G1 X109.037 Y101.455 E.01881
G1 X126.045 Y118.463 E.84733
G1 X126.045 Y118.998 E.01885
G1 X108.502 Y101.455 E.87398
G1 X107.967 Y101.455 E.01885
G1 X126.045 Y119.533 E.90063
G1 X126.045 Y120.068 E.01885
G1 X107.432 Y101.455 E.92729
G1 X106.897 Y101.455 E.01885
G1 X126.045 Y120.603 E.95394
G1 X126.045 Y121.138 E.01885
G1 X106.362 Y101.455 E.98059
G1 X105.827 Y101.455 E.01885
G1 X126.045 Y121.673 E1.00725
G1 X126.045 Y122.208 E.01885
G1 X105.292 Y101.455 E1.0339
G1 X104.757 Y101.455 E.01885
G1 X126.045 Y122.743 E1.06055
G1 X126.045 Y123.278 E.01885
G1 X104.222 Y101.455 E1.08721
G1 X103.955 Y101.455 E.00941
G1 X103.955 Y101.722 E.00941
G1 X125.778 Y123.545 E1.08721
G1 X125.243 Y123.545 E.01885
G1 X103.955 Y102.257 E1.06055
G1 X103.955 Y102.792 E.01885
G1 X124.708 Y123.545 E1.0339
G1 X124.173 Y123.545 E.01885
G1 X103.955 Y103.327 E1.00725
G1 X103.955 Y103.862 E.01885
G1 X123.638 Y123.545 E.98059
G1 X123.103 Y123.545 E.01885
G1 X103.955 Y104.397 E.95394
G1 X103.955 Y104.932 E.01885
G1 X122.568 Y123.545 E.92729
G1 X122.033 Y123.545 E.01885
G1 X103.955 Y105.467 E.90063
G1 X103.955 Y106.002 E.01885
G1 X121.498 Y123.545 E.87398
G1 X120.963 Y123.545 E.01885
G1 X103.955 Y106.537 E.84733
G1 X103.955 Y107.072 E.01885
G1 X120.428 Y123.545 E.82067
G1 X119.893 Y123.545 E.01885
G1 X103.955 Y107.607 E.79402
G1 X103.955 Y108.141 E.01881
G1 X119.359 Y123.545 E.76742
G1 X118.824 Y123.545 E.01885
G1 X103.955 Y108.676 E.74076
G1 X103.955 Y109.211 E.01885
G1 X118.289 Y123.545 E.71411
G1 X117.754 Y123.545 E.01885
G1 X103.955 Y109.746 E.68746
G1 X103.955 Y110.281 E.01885
G1 X117.219 Y123.545 E.6608
G1 X116.684 Y123.545 E.01885
G1 X103.955 Y110.816 E.63415
G1 X103.955 Y111.351 E.01885
G1 X116.149 Y123.545 E.6075
G1 X115.614 Y123.545 E.01885
G1 X103.955 Y111.886 E.58084
G1 X103.955 Y112.421 E.01885
G1 X115.079 Y123.545 E.55419
G1 X114.544 Y123.545 E.01885
G1 X103.955 Y112.956 E.52754
G1 X103.955 Y113.491 E.01885
G1 X114.009 Y123.545 E.50088
G1 X113.474 Y123.545 E.01885
G1 X103.955 Y114.026 E.47423
G1 X103.955 Y114.561 E.01885
G1 X112.939 Y123.545 E.44758
G1 X112.404 Y123.545 E.01885
G1 X103.955 Y115.096 E.42092
G1 X103.955 Y115.631 E.01885
G1 X111.869 Y123.545 E.39427
G1 X111.334 Y123.545 E.01885
G1 X103.955 Y116.166 E.36762
G1 X103.955 Y116.701 E.01885
G1 X110.799 Y123.545 E.34096
G1 X110.264 Y123.545 E.01885
G1 X103.955 Y117.236 E.31431
G1 X103.955 Y117.771 E.01885
G1 X109.729 Y123.545 E.28766
G1 X109.194 Y123.545 E.01885
G1 X103.955 Y118.306 E.261
G1 X103.955 Y118.841 E.01885
G1 X108.659 Y123.545 E.23435
G1 X108.125 Y123.545 E.01881
G1 X103.955 Y119.375 E.20775
G1 X103.955 Y119.91 E.01885
G1 X107.59 Y123.545 E.18109
G1 X107.055 Y123.545 E.01885
G1 X103.955 Y120.445 E.15444
G1 X103.955 Y120.98 E.01885
G1 X106.52 Y123.545 E.12779
G1 X105.985 Y123.545 E.01885
G1 X103.955 Y121.515 E.10113
G1 X103.955 Y122.05 E.01885
G1 X105.45 Y123.545 E.07448
G1 X104.915 Y123.545 E.01885
G1 X103.955 Y122.585 E.04783
G1 X103.955 Y123.12 E.01885
G1 X104.55 Y123.715 E.02964
; stop printing object Pyramid id:0 copy 0
M106 S255
;LAYER_CHANGE
;Z:0.4
;HEIGHT:0.2
;BEFORE_LAYER_CHANGE
G92 E0
;0.4


G1 E-4.2 F3600
;WIPE_START
G1 F7200
G1 X103.955 Y123.12 E-.39969
G1 X103.955 Y122.585 E-.25412
G1 X104.915 Y123.545 E-.64488
G1 X105.45 Y123.545 E-.25412
G1 X105.082 Y123.177 E-.24719
;WIPE_END
G1 Z.4 F9000
;AFTER_LAYER_CHANGE
;0.4
G1 Z.4
G1 X105.082 Y128.277
G1 Z.4
G1 E6 F2400
;TYPE:Skirt/Brim
;WIDTH:0.42
G1 F1800
G1 X102.6 Y128.277 E.08716
G1 X101.017 Y127.883 E.05729
G1 X99.803 Y126.793 E.05729
G1 X99.223 Y124.9 E.06953
G1 X99.223 Y100.1 E.8709
G1 X99.617 Y98.517 E.05729
G1 X100.707 Y97.303 E.05729
G1 X102.6 Y96.723 E.06953
G1 X127.4 Y96.723 E.8709
G1 X128.983 Y97.117 E.05729
G1 X130.197 Y98.207 E.05729
G1 X130.777 Y100.1 E.06953
G1 X130.777 Y124.9 E.8709
G1 X130.383 Y126.483 E.05729
G1 X129.293 Y127.697 E.05729
G1 X127.4 Y128.277 E.06953
G1 X105.142 Y128.277 E.78163
; printing object Pyramid id:0 copy 0
G1 E-4.2 F3600
;WIPE_START
G1 F7200
G1 X105.082 Y128.277 E-.0285
G1 X102.6 Y128.277 E-1.17895
G1 X101.389 Y127.976 E-.59255
;WIPE_END
G1 X103.794 Y123.706 F9000
G1 E6 F2400
;TYPE:Perimeter
;WIDTH:0.439999
G1 X103.794 Y101.294 E.82878
G1 X126.206 Y101.294 E.82878
G1 X126.206 Y112.5 E.41439
G1 X126.206 Y123.706 E.41439
G1 X103.854 Y123.706 E.82656
G1 X103.854 Y123.706 F9000
G1 X103.397 Y124.103
G1 F2400
G1 X103.397 Y100.897 E.85814
G1 X126.603 Y100.897 E.85814
G1 X126.603 Y112.5 E.42907
G1 X126.603 Y124.103 E.42907
G1 X103.457 Y124.103 E.85592
G1 X103.01 Y124.49 F9000
;TYPE:External perimeter
;WIDTH:0.419999
G1 F1800
G1 X103.01 Y100.51 E.8421
G1 X126.99 Y100.51 E.8421
G1 X126.99 Y112.5 E.42105
G1 X126.99 Y124.49 E.42105
G1 X103.07 Y124.49 E.83999
G1 E-4.2 F3600
;WIPE_START
G1 F7200
G1 X103.01 Y124.49 E-.0285
G1 X103.01 Y120.761 E-1.7715
;WIPE_END
G1 X104.208 Y101.632 F9000
G1 E6 F2400
;TYPE:Solid infill
;WIDTH:0.53634
G1 X104.164 Y101.589 E.00283
G1 X104.104 Y101.604 E.00284
G1 X104.089 Y101.664 E.00284
G1 X104.132 Y101.708 E.00283
G1 X104.192 Y101.692 E.00285
;WIDTH:0.439999
G1 X104.1 Y102.326 E.02369
G1 X104.826 Y101.6 E.03797
G1 X105.387 Y101.6 E.02075
G1 X104.1 Y102.887 E.06731
G1 X104.1 Y103.449 E.02078
G1 X105.949 Y101.6 E.0967
G1 X106.511 Y101.6 E.02078
G1 X104.1 Y104.011 E.12609
G1 X104.1 Y104.572 E.02075
G1 X107.072 Y101.6 E.15543
G1 X107.634 Y101.6 E.02078
G1 X104.1 Y105.134 E.18482
G1 X104.1 Y105.695 E.02075
G1 X108.195 Y101.6 E.21415
G1 X108.757 Y101.6 E.02078
G1 X104.1 Y106.257 E.24355
G1 X104.1 Y106.818 E.02075
G1 X109.318 Y101.6 E.27288
G1 X109.88 Y101.6 E.02078
G1 X104.1 Y107.38 E.30227
G1 X104.1 Y107.941 E.02075
G1 X110.441 Y101.6 E.33161
G1 X111.003 Y101.6 E.02078
G1 X104.1 Y108.503 E.361
G1 X104.1 Y109.065 E.02078
G1 X111.565 Y101.6 E.39039
G1 X112.126 Y101.6 E.02075
G1 X104.1 Y109.626 E.41973
G1 X104.1 Y110.188 E.02078
G1 X112.688 Y101.6 E.44912
G1 X113.249 Y101.6 E.02075
G1 X104.1 Y110.749 E.47846
G1 X104.1 Y111.311 E.02078
G1 X113.811 Y101.6 E.50785
G1 X114.372 Y101.6 E.02075
G1 X104.1 Y111.872 E.53719
G1 X104.1 Y112.434 E.02078
G1 X114.934 Y101.6 E.56658
G1 X115.495 Y101.6 E.02075
G1 X104.1 Y112.995 E.59592
G1 X104.1 Y113.557 E.02078
G1 X116.057 Y101.6 E.62531
G1 X116.619 Y101.6 E.02078
G1 X104.1 Y114.119 E.6547
G1 X104.1 Y114.68 E.02075
G1 X117.18 Y101.6 E.68404
G1 X117.742 Y101.6 E.02078
G1 X104.1 Y115.242 E.71343
G1 X104.1 Y115.803 E.02075
G1 X118.303 Y101.6 E.74277
G1 X118.865 Y101.6 E.02078
G1 X104.1 Y116.365 E.77216
G1 X104.1 Y116.926 E.02075
G1 X119.426 Y101.6 E.8015
G1 X119.988 Y101.6 E.02078
G1 X104.1 Y117.488 E.83089
G1 X104.1 Y118.049 E.02075
G1 X120.549 Y101.6 E.86023
G1 X121.111 Y101.6 E.02078
G1 X104.1 Y118.611 E.88962
G1 X104.1 Y119.173 E.02078
G1 X121.673 Y101.6 E.91901
G1 X122.234 Y101.6 E.02075
G1 X104.1 Y119.734 E.94835
G1 X104.1 Y120.296 E.02078
G1 X122.796 Y101.6 E.97774
G1 X123.357 Y101.6 E.02075
G1 X104.1 Y120.857 E1.00708
G1 X104.1 Y121.419 E.02078
G1 X123.919 Y101.6 E1.03647
G1 X124.48 Y101.6 E.02075
G1 X104.1 Y121.98 E1.06581
G1 X104.1 Y122.542 E.02078
G1 X125.042 Y101.6 E1.0952
G1 X125.603 Y101.6 E.02075
G1 X104.1 Y123.103 E1.12454
G1 X104.079 Y123.288 E.00689
;WIDTH:0.41146
G1 X104.058 Y123.472 E.00636
;WIDTH:0.38292
G1 X103.987 Y123.453 E.00233
G1 X104.006 Y123.524 E.00233
G1 X104.047 Y123.513 E.00134
;WIDTH:0.439999
G1 X104.365 Y123.4 E.01248
G1 X125.9 Y101.865 E1.12621
G1 X125.956 Y101.706 E.00623
;WIDTH:0.41146
G1 X126.013 Y101.547 E.0058
;WIDTH:0.38292
G1 X125.972 Y101.558 E.00134
G1 X125.953 Y101.487 E.00233
G1 X126.024 Y101.506 E.00233
G1 X126.024 Y101.506 F9000
G1 X125.9 Y102.426
;WIDTH:0.439999
G1 F2400
G1 X104.926 Y123.4 E1.09687
G1 X105.488 Y123.4 E.02078
G1 X125.9 Y102.988 E1.06748
G1 X125.9 Y103.549 E.02075
G1 X106.049 Y123.4 E1.03814
G1 X106.611 Y123.4 E.02078
G1 X125.9 Y104.111 E1.00875
G1 X125.9 Y104.673 E.02078
G1 X107.173 Y123.4 E.97936
G1 X107.734 Y123.4 E.02075
G1 X125.9 Y105.234 E.95002
G1 X125.9 Y105.796 E.02078
G1 X108.296 Y123.4 E.92063
G1 X108.857 Y123.4 E.02075
G1 X125.9 Y106.357 E.89129
G1 X125.9 Y106.919 E.02078
G1 X109.419 Y123.4 E.8619
G1 X109.98 Y123.4 E.02075
G1 X125.9 Y107.48 E.83256
G1 X125.9 Y108.042 E.02078
G1 X110.542 Y123.4 E.80317
G1 X111.103 Y123.4 E.02075
G1 X125.9 Y108.603 E.77383
G1 X125.9 Y109.165 E.02078
G1 X111.665 Y123.4 E.74444
G1 X112.227 Y123.4 E.02078
G1 X125.9 Y109.727 E.71505
G1 X125.9 Y110.288 E.02075
G1 X112.788 Y123.4 E.68571
G1 X113.35 Y123.4 E.02078
G1 X125.9 Y110.85 E.65632
G1 X125.9 Y111.411 E.02075
G1 X113.911 Y123.4 E.62698
G1 X114.473 Y123.4 E.02078
G1 X125.9 Y111.973 E.59759
G1 X125.9 Y112.534 E.02075
G1 X115.034 Y123.4 E.56826
G1 X115.596 Y123.4 E.02078
G1 X125.9 Y113.096 E.53886
G1 X125.9 Y113.657 E.02075
G1 X116.157 Y123.4 E.50953
G1 X116.719 Y123.4 E.02078
G1 X125.9 Y114.219 E.48014
G1 X125.9 Y114.781 E.02078
G1 X117.281 Y123.4 E.45074
G1 X117.842 Y123.4 E.02075
G1 X125.9 Y115.342 E.42141
G1 X125.9 Y115.904 E.02078
G1 X118.404 Y123.4 E.39202
G1 X118.965 Y123.4 E.02075
G1 X125.9 Y116.465 E.36268
G1 X125.9 Y117.027 E.02078
G1 X119.527 Y123.4 E.33329
G1 X120.088 Y123.4 E.02075
G1 X125.9 Y117.588 E.30395
G1 X125.9 Y118.15 E.02078
G1 X120.65 Y123.4 E.27456
G1 X121.211 Y123.4 E.02075
G1 X125.9 Y118.711 E.24522
G1 X125.9 Y119.273 E.02078
G1 X121.773 Y123.4 E.21583
G1 X122.335 Y123.4 E.02078
G1 X125.9 Y119.835 E.18644
G1 X125.9 Y120.396 E.02075
G1 X122.896 Y123.4 E.1571
G1 X123.458 Y123.4 E.02078
G1 X125.9 Y120.958 E.12771
G1 X125.9 Y121.519 E.02075
G1 X124.019 Y123.4 E.09837
G1 X124.581 Y123.4 E.02078
G1 X125.9 Y122.081 E.06898
G1 X125.9 Y122.642 E.02075
G1 X125.142 Y123.4 E.03964
G1 X125.087 Y123.479 E.00356
;WIDTH:0.41146
G1 X125.031 Y123.559 E.00335
;WIDTH:0.38292
G1 X124.96 Y123.54 E.00233
G1 X124.979 Y123.611 E.00233
G1 X125.02 Y123.6 E.00134
G1 X125.02 Y123.6 F9000
G1 X125.888 Y123.388
;WIDTH:0.554918
G1 F2400
G1 X125.826 Y123.404 E.00305
G1 X125.781 Y123.359 E.00303
G1 X125.797 Y123.297 E.00305
G1 X125.859 Y123.281 E.00305
G1 X125.904 Y123.326 E.00303
; stop printing object Pyramid id:0 copy 0
;LAYER_CHANGE
;Z:0.6
;HEIGHT:0.2
;BEFORE_LAYER_CHANGE
G92 E0
;0.6


G1 E-4.2 F3600
;WIPE_START
G1 F7200
G1 X125.859 Y123.281 E-.03023
G1 X125.797 Y123.297 E-.03041
G1 X125.781 Y123.359 E-.03041
G1 X125.826 Y123.404 E-.03023
G1 X125.888 Y123.388 E-.03041
;WIPE_END
G1 E-1.64831 F3600
G1 Z.6 F9000
;AFTER_LAYER_CHANGE
;0.6
; printing object Pyramid id:0 copy 0
G1 X126.006 Y123.506
G1 Z.6
G1 E6 F2400
;TYPE:Perimeter
;WIDTH:0.439999
G1 X103.994 Y123.506 E.81399
G1 X103.994 Y101.494 E.81399
G1 X126.006 Y101.494 E.81399
G1 X126.006 Y112.5 E.40699
G1 X126.006 Y123.446 E.40478
G1 X126.006 Y123.446 F9000
G1 X126.403 Y123.903
G1 F2400
G1 X103.597 Y123.903 E.84335
G1 X103.597 Y101.097 E.84335
G1 X126.403 Y101.097 E.84335
G1 X126.403 Y112.5 E.42168
G1 X126.403 Y123.843 E.41946
G1 X126.79 Y124.29 F9000
;TYPE:External perimeter
;WIDTH:0.419999
G1 F1800
G1 X103.21 Y124.29 E.82805
G1 X103.21 Y100.71 E.82805
G1 X126.79 Y100.71 E.82805
G1 X126.79 Y112.5 E.41403
G1 X126.79 Y124.23 E.41192
G1 E-4.2 F3600
;WIPE_START
G1 F7200
G1 X126.79 Y124.29 E-.0285
G1 X123.061 Y124.29 E-1.7715
;WIPE_END
G1 X104.332 Y123.092 F9000
G1 E6 F2400
;TYPE:Solid infill
;WIDTH:0.53634
G1 X104.289 Y123.136 E.00283
G1 X104.304 Y123.196 E.00284
G1 X104.364 Y123.212 E.00285
G1 X104.408 Y123.168 E.00286
G1 X104.392 Y123.108 E.00285
;WIDTH:0.439999
G1 X104.3 Y122.474 E.02369
G1 X105.026 Y123.2 E.03797
